src/icons/svg/load.svg

<svg width="40px" height="40px" viewBox="0 0 40 40" version="1.1" xmlns="http://www.w3.org/2000/svg"
>
    <g id="nav" stroke="none" stroke-width="1" fill="none" fill-rule="evenodd">
        <g id="编组" fill="#2C2C2C" fill-rule="nonzero">
            <path d="M36.2337155,40 L3.83950248,40 C1.72889418,40 0.0139775379,38.0453471 0,35.6236365 L0,4.37640088 C0.0139775379,1.95469028 1.72889418,1.85840768e-05 3.83950248,1.85840768e-05 L14.9511752,1.85840768e-05 C16.0640328,-0.00369883798 17.1228072,0.550449483 17.8498725,1.51717671 L20.1128905,4.4347524 C20.3423158,4.77835018 20.7020834,4.97388994 21.0791229,4.95991602 L36.157434,4.78486148 C38.2680423,4.78480837 39.9829589,6.7395144 39.9969365,9.16122501 L39.9969365,35.4194062 C40.038138,36.6028117 39.662346,37.7554113 38.9543292,38.6172097 C38.2463123,39.4790081 37.2657085,39.9774138 36.2337155,40 Z M3.83950248,2.91732087 C3.49793346,2.90977297 3.16798756,3.05999817 2.92403359,3.33442832 C2.68007963,3.60885847 2.54271685,3.9843978 2.54271685,4.37640088 L2.54271685,35.6236365 C2.54271685,36.0156396 2.68007963,36.3911789 2.92403359,36.665609 C3.16798756,36.9400392 3.49793346,37.0902644 3.83950248,37.0827165 L36.2337155,37.0827165 C36.5752845,37.0902644 36.9052304,36.9400392 37.1491844,36.665609 C37.3931384,36.3911789 37.5305011,36.0156396 37.5305011,35.6236365 L37.5305011,9.36545531 C37.5166505,8.55509182 36.9400969,7.90651164 36.2337155,7.90666746 L21.1808316,8.081722 C20.0457824,8.04929372 18.9788833,7.45316829 18.2567072,6.44787962 L16.0191163,3.53030393 C15.7683442,3.14277565 15.3718285,2.9152897 14.9511752,2.91732087 L3.83950248,2.91732087 Z"
                  id="形状"></path>
            <path d="M19.6297743,34.1356729 C18.9193558,34.1379385 18.2358159,33.8242143 17.7227366,33.2604002 L10.094586,24.5076731 C9.79793204,24.0911239 9.71126472,23.5276067 9.86574148,23.0197095 C10.0642536,22.4650678 10.5383227,22.1062867 11.0608184,22.115261 L14.468059,22.115261 L14.5951949,15.9883521 C14.5951949,13.5713533 16.3028146,11.6119886 18.4092702,11.6119886 L21.2062588,11.6119886 C22.2222213,11.580666 23.2070622,12.0159004 23.9422295,12.8211064 C24.6773969,13.6263123 25.1020828,14.7348887 25.1220427,15.9008248 L25.1220427,22.0277338 L29.0123996,22.0277338 C29.5542971,22.0323518 30.0340795,22.4305961 30.2074765,23.0197095 C30.3892691,23.5821514 30.2589376,24.214844 29.8769233,24.6243761 L21.3842489,33.3771032 C20.9049863,33.8771605 20.2774602,34.1484795 19.6297743,34.1356729 L19.6297743,34.1356729 Z M14.0866515,24.9453095 L19.5280656,31.1889214 L25.6814405,24.9453095 L25.1220427,24.9453095 C24.4250554,24.9463098 23.7582658,24.61898 23.2775845,24.0398572 C22.7969032,23.4607345 22.5444759,22.6805956 22.5793259,21.881855 L22.5793259,16.0467036 C22.5793259,15.2410373 22.0101193,14.5879158 21.3079674,14.5879158 L18.4092702,14.5879158 C17.7071183,14.5879158 17.1379118,15.2410373 17.1379118,16.0467036 L17.1379118,21.881855 C17.1748463,22.7065969 16.9054399,23.5106656 16.3965175,24.0946156 C15.8875952,24.6785656 15.1868356,24.9876891 14.468059,24.9453095 L14.0866515,24.9453095 Z"
                  id="形状"></path>
        </g>
    </g>
</svg>

<svg width="40" height="40" xmlns="http://www.w3.org/2000/svg"><g fill="currentColor" fill-rule="nonzero"><path d="M36.234 40H3.84C1.729 40 .014 38.045 0 35.624V4.376C.014 1.955 1.729 0 3.84 0H14.95c1.113-.004 2.172.55 2.899 1.517l2.263 2.918c.23.343.59.539.966.525l15.078-.175c2.111 0 3.826 1.955 3.84 4.376V35.42c.041 1.184-.335 2.336-1.043 3.198-.708.862-1.688 1.36-2.72 1.383zM3.84 2.917a1.19 1.19 0 0 0-.916.417c-.244.275-.381.65-.381 1.042v31.248c0 .392.137.767.381 1.042.244.274.574.424.916.417h32.394a1.19 1.19 0 0 0 .915-.417c.244-.275.382-.65.382-1.042V9.365c-.014-.81-.59-1.458-1.297-1.458l-15.053.175c-1.135-.033-2.202-.629-2.924-1.634L16.019 3.53c-.25-.387-.647-.615-1.068-.613H3.84z"/><path d="M19.63 34.136c-.71.002-1.394-.312-1.907-.876l-7.628-8.752a1.73 1.73 0 0 1-.23-1.488c.2-.555.673-.914 1.196-.905h3.407l.127-6.127c0-2.417 1.708-4.376 3.814-4.376h2.797c1.016-.031 2.001.404 2.736 1.21.735.804 1.16 1.913 1.18 3.079v6.127h3.89c.542.004 1.022.403 1.195.992.182.562.052 1.195-.33 1.604l-8.493 8.753c-.479.5-1.107.771-1.754.759zm-5.543-9.19l5.441 6.243 6.153-6.244h-.559c-.697.001-1.364-.326-1.844-.905-.481-.58-.734-1.36-.699-2.158v-5.835c0-.806-.569-1.46-1.271-1.46h-2.899c-.702 0-1.271.654-1.271 1.46v5.835c.037.825-.233 1.629-.741 2.213-.51.584-1.21.893-1.929.85h-.381z"/></g></svg>
